assets/ai/ai-academia-square.svg

<svg xmlns="http://www.w3.org/2000/svg" width="100%" height="100%" viewBox="-75.52 -43.52 599.04 599.04"><path d="M 48 32 C 21.5 32 0 53.5 0 80 L 0 432 C 0 458.5 21.5 480 48 480 L 400 480 C 426.5 480 448 458.5 448 432 L 448 80 C 448 53.5 426.5 32 400 32 L 48 32 z M 207.79297 96 C 221.64286 95.990765 235.49191 96.065306 249.3418 96.304688 C 287.24422 192.07456 326.21734 287.4763 364.63477 383.0625 C 368.5023 394.00152 380.91729 396.8388 390.97266 398.86523 C 390.97266 404.57395 391.00781 410.28199 391.00781 415.99219 C 340.98742 415.95439 290.96725 416.02908 240.94531 415.95508 C 240.94531 410.20985 240.98047 404.50009 240.98047 398.79102 C 253.50488 397.83511 269.63835 398.57261 277.08008 386.23047 C 279.95403 376.65384 276.74937 366.67038 273.21289 357.75781 C 267.90871 344.53351 262.60415 331.30964 257.29883 318.12305 C 218.6585 317.97689 180.0583 318.23487 141.41797 318.01367 C 134.45651 334.25801 128.41379 350.87158 122.04102 367.33594 C 119.38971 374.59229 116.55398 384.24386 122.96289 390.43164 C 131.10332 397.35696 142.59601 397.17255 152.61523 398.71875 C 152.65123 404.46515 152.6513 410.21162 152.6875 415.99414 C 120.78869 415.95694 88.891007 416.06764 56.992188 415.91992 C 56.992187 410.24735 57.027344 404.57586 57.027344 398.93945 C 66.787415 396.91454 78.980872 394.51791 82.701172 383.79883 C 115.63242 299.66783 148.59941 215.50194 181.05078 131.1875 C 175.70932 119.69438 171.3987 107.76225 166.24219 96.195312 C 180.09207 96.102824 193.94308 96.009235 207.79297 96 z M 197.95703 169.5332 C 183.44421 208.98335 167.75343 248.02703 152.94531 287.36719 A 9679.2904 9679.2904 0 0 0 245.06836 287.36719 C 229.37659 248.10086 213.61265 208.83608 197.95703 169.5332 z"/></svg>

<svg xmlns="http://www.w3.org/2000/svg" width="100%" height="100%" viewBox="-75.52 -43.52 599.04 599.04"><path d="M48 32C21.5 32 0 53.5 0 80v352c0 26.5 21.5 48 48 48h352c26.5 0 48-21.5 48-48V80c0-26.5-21.5-48-48-48H48zm159.793 64c13.85-.01 27.699.065 41.549.305 37.902 95.77 76.875 191.171 115.293 286.757 3.867 10.94 16.282 13.777 26.338 15.803 0 5.709.035 11.417.035 17.127-50.02-.038-100.04.037-150.063-.037 0-5.745.035-11.455.035-17.164 12.525-.956 28.658-.218 36.1-12.56 2.874-9.577-.33-19.56-3.867-28.473a40245.15 40245.15 0 00-15.914-39.635c-38.64-.146-77.24.112-115.881-.11-6.961 16.245-13.004 32.859-19.377 49.323-2.651 7.256-5.487 16.908.922 23.096 8.14 6.925 19.633 6.74 29.652 8.287.036 5.746.036 11.493.072 17.275-31.898-.037-63.796.074-95.695-.074 0-5.673.035-11.344.035-16.98 9.76-2.025 21.954-4.422 25.674-15.141 32.931-84.131 65.898-168.297 98.35-252.611-5.342-11.494-9.652-23.426-14.809-34.993 13.85-.092 27.701-.186 41.551-.195zm-9.836 73.533c-14.513 39.45-30.204 78.494-45.012 117.834a9679.29 9679.29 0 0092.123 0c-15.691-39.266-31.455-78.53-47.111-117.834z"/></svg>
